X: 20792
T: O DEAR WHAT CAN THE MATTER BE
Q: "Vivace"
%R: jig
B: "Edinburgh Repository of Music" v.2 p.79 #2
F: http://digital.nls.uk/special-collections-of-printed-music/pageturner.cfm?id=87776133
Z: 2015 John Chambers <jc:trillian.mit.edu>
M: 6/8
L: 1/8
K: D
|:"_F."\
a3 a3 | afd' afd | {a}g3 g3 | gef gfe |\
a3 a3 | afd' afd | Bdg fge | d2z d2z :|
|:\
"_P."(af).g (af)g | afd' afd | gef gef | gef gfe |\
afg afg | afd' afd | Beg fge | d2z d2z H:|
